static/assets/template/assets/img/icons/essential/detailed/Shopping_Basket.svg

<svg height="122" viewBox="0 0 152 122" width="152" xmlns="http://www.w3.org/2000/svg"><g fill="none" fill-rule="evenodd" transform="translate(2 -1)"><g stroke-linecap="round" stroke-linejoin="round" stroke-width="3" transform="translate(0 121)"><path d="m1.2 0h-1.2"/><path d="m15.8 0h-9.9"/><path d="m21.9 0h-1.1"/><path d="m116.1 0h-88"/><path d="m147.8 0h-26.8"/></g><path d="m134.2 61.3-9.8 51c-.7 4.5-4.6 7.8-9.1 7.8h-79.1c-4.5 0-8.4-3.3-9.1-7.8l-9.8-51" fill-rule="nonzero"/><path d="m134.2 61.3-.9 4.8-8.9 46.2c-.7 4.5-4.6 7.8-9.1 7.8h-79.1c-4.5 0-8.4-3.3-9.1-7.8l-8.9-46.2-.9-4.8z" fill-rule="nonzero"/><path d="m134.2 61.3-1.4 6.8-114 .1-1.6-6.9z" fill="#9ecbff" fill-rule="nonzero"/><path d="m62.1 40.1h75.3c3.8 0 6.9 3.1 6.9 6.9v7.4c0 3.8-3.1 6.9-6.9 6.9h-3.3" fill-rule="nonzero"/><path d="m49.4 40.1h4.2" fill-rule="nonzero"/><path d="m17.2 61.3h-3.3c-3.8 0-6.9-3.1-6.9-6.9v-7.4c0-3.8 3.1-6.9 6.9-6.9h35.4" fill-rule="nonzero"/><path d="m21.2 61.3h-3.1c-3.7 0-6.7-2.6-6.7-5.7v-6.2c0-3.2 3-5.7 6.7-5.7h119.5c3.7 0 6.7 2.6 6.7 5.7v6.2c0 3.2-3 5.7-6.7 5.7h-3.1" fill-rule="nonzero"/><g stroke-linecap="round" stroke-linejoin="round"><path d="m56.9 40.1h80.5c3.8 0 6.9 3.1 6.9 6.9v7.4c0 3.8-3.1 6.9-6.9 6.9h-3.3" stroke-width="3"/><path d="m47.8 40.1h.3" stroke-width="3"/><path d="m17.2 61.3h-3.3c-3.8 0-6.9-3.1-6.9-6.9v-7.4c0-3.8 3.1-6.9 6.9-6.9h27" stroke-width="3"/><path d="m24.5 98.9-7.3-37.6" stroke-width="3"/><path d="m134.2 61.3-9.8 51c-.7 4.5-4.6 7.8-9.1 7.8h-79.1c-4.5 0-8.4-3.3-9.1-7.8l-.5-2.5" stroke-width="3"/><g stroke-width="3" transform="translate(39 75)"><path d="m.4.3 6.1 30.8"/><path d="m20.6 24.1 1 7"/><path d="m17.3.3 2.4 17.3"/><path d="m36.7.3v30.8"/><path d="m54.4 12.5-2.6 18.6"/><path d="m56.1.3-.9 6.6"/><path d="m67.2 29.7-.3 1.4"/><path d="m73 .3-4.4 22.3"/></g><circle cx="66.89278" cy="8.8743" fill-rule="nonzero" r="5.899943" stroke-width="2.999971" transform="matrix(.70710678 -.70710678 .70710678 .70710678 13.317364 49.899561)"/><path d="m62.7 4.7-35.4 35.4" stroke-width="3"/><circle cx="85.30402" cy="8.90206" fill-rule="nonzero" r="5.899943" stroke-width="2.999971" transform="matrix(.70710678 -.70710678 .70710678 .70710678 18.690262 62.926404)"/><path d="m89.5 4.7 35.4 35.4" stroke-width="3"/><path d="m123.6 61.3h-95.8" stroke-width="3"/></g></g></svg>

<?xml version="1.0" encoding="UTF-8"?>
<svg width="152px" height="122px" viewBox="0 0 152 122" version="1.1" xmlns="http://www.w3.org/2000/svg" xmlns:xlink="http://www.w3.org/1999/xlink">
    <!-- Generator: Sketch 51.2 (57519) - http://www.bohemiancoding.com/sketch -->
    <title>Shopping_Basket</title>
    <desc>Created with Sketch.</desc>
    <defs></defs>
    <g id="Page-1" stroke="none" stroke-width="1" fill="none" fill-rule="evenodd">
        <g id="Shopping_Basket" transform="translate(2.000000, -1.000000)">
            <g id="Group" transform="translate(0.000000, 121.000000)" class="stroke-primary-300" stroke-linecap="round" stroke-linejoin="round" stroke-width="3">
                <path d="M1.2,0 L0,0" id="Shape"></path>
                <path d="M15.8,0 L5.9,0" id="Shape"></path>
                <path d="M21.9,0 L20.8,0" id="Shape"></path>
                <path d="M116.1,0 L28.1,0" id="Shape"></path>
                <path d="M147.8,0 L121,0" id="Shape"></path>
            </g>
            <path d="M134.2,61.3 L124.4,112.3 C123.7,116.8 119.8,120.1 115.3,120.1 L36.2,120.1 C31.7,120.1 27.8,116.8 27.1,112.3 L17.3,61.3" id="Shape" class="fill-neutral" fill-rule="nonzero"></path>
            <path d="M134.2,61.3 L133.3,66.1 L124.4,112.3 C123.7,116.8 119.8,120.1 115.3,120.1 L36.2,120.1 C31.7,120.1 27.8,116.8 27.1,112.3 L18.2,66.1 L17.3,61.3 L134.2,61.3 Z" id="Shape" class="fill-primary-200" fill-rule="nonzero"></path>
            <polygon id="Shape" fill="#9ECBFF" fill-rule="nonzero" points="134.2 61.3 132.8 68.1 18.8 68.2 17.2 61.3"></polygon>
            <path d="M62.1,40.1 L137.4,40.1 C141.2,40.1 144.3,43.2 144.3,47 L144.3,54.4 C144.3,58.2 141.2,61.3 137.4,61.3 L134.1,61.3" id="Shape" class="fill-neutral" fill-rule="nonzero"></path>
            <path d="M49.4,40.1 L53.6,40.1" id="Shape" class="fill-neutral" fill-rule="nonzero"></path>
            <path d="M17.2,61.3 L13.9,61.3 C10.1,61.3 7,58.2 7,54.4 L7,47 C7,43.2 10.1,40.1 13.9,40.1 L49.3,40.1" id="Shape" class="fill-neutral" fill-rule="nonzero"></path>
            <path d="M21.2,61.3 L18.1,61.3 C14.4,61.3 11.4,58.7 11.4,55.6 L11.4,49.4 C11.4,46.2 14.4,43.7 18.1,43.7 L137.6,43.7 C141.3,43.7 144.3,46.3 144.3,49.4 L144.3,55.6 C144.3,58.8 141.3,61.3 137.6,61.3 L134.5,61.3" id="Shape" class="fill-primary-100" fill-rule="nonzero"></path>
            <path d="M56.9,40.1 L137.4,40.1 C141.2,40.1 144.3,43.2 144.3,47 L144.3,54.4 C144.3,58.2 141.2,61.3 137.4,61.3 L134.1,61.3" id="Shape" class="stroke-primary" stroke-width="3" stroke-linecap="round" stroke-linejoin="round"></path>
            <path d="M47.8,40.1 L48.1,40.1" id="Shape" class="stroke-primary" stroke-width="3" stroke-linecap="round" stroke-linejoin="round"></path>
            <path d="M17.2,61.3 L13.9,61.3 C10.1,61.3 7,58.2 7,54.4 L7,47 C7,43.2 10.1,40.1 13.9,40.1 L40.9,40.1" id="Shape" class="stroke-primary" stroke-width="3" stroke-linecap="round" stroke-linejoin="round"></path>
            <path d="M24.5,98.9 L17.2,61.3" id="Shape" class="stroke-primary" stroke-width="3" stroke-linecap="round" stroke-linejoin="round"></path>
            <path d="M134.2,61.3 L124.4,112.3 C123.7,116.8 119.8,120.1 115.3,120.1 L36.2,120.1 C31.7,120.1 27.8,116.8 27.1,112.3 L26.6,109.8" id="Shape" class="stroke-primary" stroke-width="3" stroke-linecap="round" stroke-linejoin="round"></path>
            <g id="Group" transform="translate(39.000000, 75.000000)" class="stroke-primary" stroke-linecap="round" stroke-linejoin="round" stroke-width="3">
                <path d="M0.4,0.3 L6.5,31.1" id="Shape"></path>
                <path d="M20.6,24.1 L21.6,31.1" id="Shape"></path>
                <path d="M17.3,0.3 L19.7,17.6" id="Shape"></path>
                <path d="M36.7,0.3 L36.7,31.1" id="Shape"></path>
                <path d="M54.4,12.5 L51.8,31.1" id="Shape"></path>
                <path d="M56.1,0.3 L55.2,6.9" id="Shape"></path>
                <path d="M67.2,29.7 L66.9,31.1" id="Shape"></path>
                <path d="M73,0.3 L68.6,22.6" id="Shape"></path>
            </g>
            <circle id="Oval" stroke-width="2.99997123" class="stroke-primaryfill-primary-200" fill-rule="nonzero" stroke-linecap="round" stroke-linejoin="round" transform="translate(66.892780, 8.874300) rotate(-45.000000) translate(-66.892780, -8.874300) " cx="66.89278" cy="8.8743" r="5.89994342"></circle>
            <path d="M62.7,4.7 L27.3,40.1" id="Shape" class="stroke-primary" stroke-width="3" stroke-linecap="round" stroke-linejoin="round"></path>
            <circle id="Oval" stroke-width="2.99997123" class="stroke-primaryfill-primary-200" fill-rule="nonzero" stroke-linecap="round" stroke-linejoin="round" transform="translate(85.304020, 8.902060) rotate(-45.000000) translate(-85.304020, -8.902060) " cx="85.30402" cy="8.90206" r="5.89994342"></circle>
            <path d="M89.5,4.7 L124.9,40.1" id="Shape" class="stroke-primary" stroke-width="3" stroke-linecap="round" stroke-linejoin="round"></path>
            <path d="M123.6,61.3 L27.8,61.3" id="Shape" class="stroke-primary" stroke-width="3" stroke-linecap="round" stroke-linejoin="round"></path>
        </g>
    </g>
</svg>
